X: 34392
T: Richard Brennan's
R: jig
M: 6/8
K: Dmajor
|:E|~F3 FED|FAF FED|DFA dAF|~E3 EDE|
~F2 F FED|FAF FED|DFA dAF|EFE D2:|
|:g|fef ece|~d3 AFD|fef ece|dfb afd|
~f3 ece|dcd AFD|DFA dAF|EFE D2:|

